X:1
T:Moving to the Mill
T:Moving to the Mill
T:Anselm Lingnau
C:Anselm Lingnau
L:1/8
M:4/4
K:C
V:1 treble 
V:1
 ee ved f Fafue z eMe'(Mf z e)afe fge ude .D2 |"G" G2 GB d2 Bd |"C" eg g/^f/g"G" d2 dB | %3
"C" c2 ce"D" A2 AB |"Am" cAEA"D" ^FDEF |"G" G2 GB d2 Bd |"C" eg g/^f/g"G" d2 Bd | %7
"C" eg g/^f/g"G" dgBg |"D" cAd^F"G" G2 :: e^f |"G" gG G/^F/G dG G/F/G |"C" e^fgd"G" BdBG | %12
"Am" cE E/^D/E"G" B=D D/^C/D |"Am" ABcA"D" ^FDEF |"G" Gd d/c/d"D" ^Fc c/B/c |"Em" E^FGA"D" Bcdc | %16
"G" Bg g/^f/g dgBd |"D" cAd^F"G" G2 :| %18

